X:1
T:My New Name
T:My New Name
T:Jame Holmes Rosecrans
T:Menzies Cumming, 1917
T:Public Domain Courtesy of the Cyber Hymnal™
T:Public Domain Courtesy of the Cyber Hymnal™
C:Jame Holmes Rosecrans
Z:Public Domain
Z:Courtesy of the Cyber Hymnal™
%%score ( 1 2 ) ( 3 4 )
L:1/8
Q:1/4=112
M:6/4
K:Ab
V:1 treble 
V:2 treble 
V:3 bass 
V:4 bass 
V:1
 [A,C]>[B,D] | [CE]3 [DF] [CE]2 [EA]2 [Ec]2 [DB]2 | [CA]6- [CA]4 [CA]>[CA] | [EB]3 [EB] [EB]2 | %4
w: 1.~When life’s|sun has gone down in- to|rest, * And the|grave seems the|
w: 2.~Well I|know it will be a sweet|name, * That with-|in the white|
w: 3.~What a|joy will be mine in that|day, * When I|meet with dear|
 [EB]2 [Ec]2 [Ed]2 | [Fd]6 [Ec]4 [Ec]>[Ed] | [Ee]3 [E=d] [Ee]2 [Ac]4 [EA]>[EA] | %7
w: home of hopes|blight- ed; What tho’|dark be its shades, And tho’|
w: stone will be|writ- ten; For my|Sav- ior is mine, And my|
w: friends loved and|gra- cious, Who have|crossed o’er the tide Un- to|
 [EA]2 [EB]2 [Ec]2 !fermata![DF]2 [D=E]2 [DF]2 | [FA]2 [EG]2 [DF]2 E2 [Ed]2 [Ec]2 | [DB]6 [CA]4 || %10
w: si- lent its glades? I’ll a-|wake in the land by love|light- ed.|
w: coun- selor di- vine, Will re-|veal it to me when in|Heav- en.|
w: Ca- naan’s fair side, Where we’ll|sing of our Sav- ior so|pre- cious.|
"^Refrain" [EA]2 | [EG]3 [EG] [EG]2 [EG]2 [EA]2 [EB]2 | A6- [EA]4 [Ac]2 | %13
w: |||
w: O|what will my new name be|there? When done|
w: |||
 [GB]3 [GB] [GB]2 [GB]2 [Ac]2 [Gd]2 | d6 [Ec]4 [Ec]>[Ed] | [Ee]2 [E=d]2 [Ee]2 [Ac]4 [EA]2 | %16
w: |||
w: * with this life and its|sto- ry? In a|white stone so fair, and|
w: |||
 [EA]2 [EB]2 [Ec]2 !fermata![Fd]4"^riten." [DF]2 | [FA]2 [EG]2 [DF]2 E2 d2 [Ac]2 | B6 [EA]4 |] %19
w: |||
w: grav- en with care, That|name I shall know when in|glo- ry.|
w: |||
V:2
 x2 | x12 | x12 | x6 | x6 | x12 | x12 | x12 | x6 E2 x4 | x10 || x2 | x12 | E2 E2 F2 x6 | x12 | %14
 (F2 G2 E2) x6 | x12 | x12 | x6 E2 (FG) x2 | (G2 F2 E2) x4 |] %19
V:3
 [A,,E,]>[A,,E,] | [A,,A,]3 [A,,A,] [A,,A,]2 [A,,C]2 [E,A,]2 [E,G,]2 | %2
w: ~ ~|~ ~ ~ ~ ~ ~|
 z2 [A,,A,]4 [A,,A,]>[A,,A,] x4 | [E,G,]3 [E,G,] [E,G,]2 | [E,G,]2 [E,A,]2 [E,B,]2 | %5
w: ~ ~ ~|~ ~ ~|~ ~ ~|
 A,6 A,4 A,>[A,B,] | [A,C]3 [A,=B,] [A,C]2 [A,E]4 [A,C]>[A,C] | %7
w: ~ ~ ~ ~|~ ~ ~ ~ ~ ~|
 [B,,A,]2 [B,,G,]2 [A,,A,]2 !fermata![D,A,]2 [D,G,]2 [D,A,]2 | %8
w: ~ ~ ~ ~ ~ ~|
 [D,F,]2 [D,G,]2 [D,A,]2 [C,A,]2 [B,,G,]2 [A,,A,]2 | [E,G,]6 [A,,E,]4 || C2 | %11
w: ~ ~ ~ ~ ~ ~|~ ~|~|
 B,3 B, B,2 B,2 C2 [E,D]2 | [A,C]2 [A,C]2 [A,D]2 [A,C]4 [A,E]2 | %13
w: ~ ~ ~ ~ ~ ~|~ my new name be|
 [E,E]3 [E,E] [E,E]2 [E,D]2 [E,C]2 [E,B,]2 | [E,B,]6 [A,,A,]4 A,>[A,B,] | %15
w: there? * * * * *||
 [A,C]2 [A,=B,]2 [A,C]2 [A,E]4 [A,C]2 | [C,A,]2 [E,G,]2 A,2 [D,A,]4 [D,A,]2 | %17
w: ||
 [D,F,]2 [D,G,]2 [D,A,]2 [C,A,]2 [B,,E,]2 [A,,E]2 | [E,D]6 [A,,A,C]4 |] %19
w: ||
V:4
 x2 | x12 | ([A,,A,]6- C,2) E,2 x2 | x6 | x6 | A,6 A,4 A,3/2 x/ | x12 | x12 | x12 | x10 || C2 | %11
 B,3 B, B,2 x6 | x12 | x12 | x10 A,3/2 x/ | x12 | x4 A,2 x6 | x12 | x10 |] %19

